X:2545
T:Cantar de Ronda (CT 066)
R:Ronda
C:Tradicional
S:Música Tradicional Asturiana, (C) Tello & Tito. Asturies, 2001.
S:http://pagina.de/MusTradAst <telloytito@asturies.org>
N:Canción de Ronda, dictada por Fernando Menéndez Álvarez, de treinta y cinco años, de Llanuces, ayuntamiento de Quirós.
O:Llanuces (Quirós)
A:Asturies
Z:Cancioneru de Torner 066
M:2/4
L:1/8
Q:1/4=100
W:Carretero que rondas mi calle,
W:mi ventana y mi balcón,
W:madruga por la mañana
W:a despertar a mi amor.
K:C
GG
|B2 Bd|(c3/2B/4A/4) Bd|(c3/2B/4A/4) B2-|B2 z2|d2 _ed|c2 BA|(Gc-c2)|
B2 B2|BB Bd|(c3/2B/4A/4) B2|d2 _ed|c2 BA|G2 z2||


